X: 31
T:the Trip to Sligo
R:Jig
O:Ireland
M:6/8
K:Em
D|\
E2e BGE|D2d AFD|E2e BGE|GFE e2f|\
gfe dcB|ABG FED|EFG ABc|BGF E2::
e|\
eBe gfe|dAd fed|eBe gfe|f/g/af gfe|\
f/g/af gfe|dcB AFA|EFG ABc|BGF E2:|










